svg/more-vertical.svg

<svg width="24" height="24" fill="none" xmlns="http://www.w3.org/2000/svg"><path d="M15 1v6H9V1h6zm-2 2h-2v2h2V3zm2 6v6H9V9h6zm-2 2h-2v2h2v-2zm2 6v6H9v-6h6zm-2 2h-2v2h2v-2z" fill="currentColor"/></svg>

<svg width="24" height="24" viewBox="0 0 24 24" fill="none" xmlns="http://www.w3.org/2000/svg">
<path fill-rule="evenodd" clip-rule="evenodd" d="M15 1H9V7H15V1ZM13 3H11V5H13V3Z" fill="currentColor"/>
<path fill-rule="evenodd" clip-rule="evenodd" d="M15 9H9V15H15V9ZM13 11H11V13H13V11Z" fill="currentColor"/>
<path fill-rule="evenodd" clip-rule="evenodd" d="M15 17H9V23H15V17ZM13 19H11V21H13V19Z" fill="currentColor"/>
</svg>
